X: 4
T:Bourree a Huit
M:3/8
L:1/8
R:Bourree (3 time)
Z:Steve Mansfield
K:C
g2^f | g2d/e/ | fed | ecc |g2^f | g2d/e/ |
fed |1 c3 :|2 c2 |: G | cBc | G2c |B/c/dg |
ecc | cBc | G2c | B/c/dB |1 c3 :|2 c2 ||
<end>
<start>
